client/assets/images/customer-home/disconnected.svg

<svg viewBox="0 0 194 126" fill="none" xmlns="http://www.w3.org/2000/svg">
<path d="M7.64049 125.176H0" stroke="#2C3338"/>
<path d="M150.139 124.782H176.417" stroke="#2C3338"/>
<path d="M180.088 124.782H187.117" stroke="#2C3338"/>
<path d="M190.333 124.782L194 124.782" stroke="#2C3338"/>
<rect x="84.571" y="105.855" width="30.5566" height="13.4533" fill="#2c3338"/>
<path d="M24.5376 24.3752C24.5376 19.1285 28.7909 14.8752 34.0376 14.8752H157.477C162.724 14.8752 166.977 19.1285 166.977 24.3752V125.07H24.5376V24.3752Z" fill="#FACFD2" stroke="#2C3338"/>
<circle cx="166.019" cy="20.0321" r="19.0321" fill="#fff" stroke="#fff" stroke-width="2"/>
<circle cx="166.019" cy="20.0321" r="17.0321" fill="#fff" stroke="#D63638" stroke-width="2"/>
<line x1="166.018" y1="11.0145" x2="166.018" y2="24.0412" stroke="#D63638" stroke-width="2" stroke-linecap="round"/>
<line x1="166.018" y1="28.0447" x2="166.018" y2="29.05" stroke="#D63638" stroke-width="2" stroke-linecap="round"/>
<path d="M24.0376 45.9201L166.689 45.9201" stroke="#2C3338"/>
<path d="M40.6817 31.439C40.6817 33.2277 39.2326 34.6772 37.4458 34.6772C35.659 34.6772 34.21 33.2277 34.21 31.439C34.21 29.6503 35.659 28.2008 37.4458 28.2008C39.2326 28.2008 40.6817 29.6503 40.6817 31.439Z" fill="#fff" stroke="#2C3338"/>
<path d="M52.3006 31.4386C52.3006 33.2272 50.8515 34.6767 49.0647 34.6767C47.2779 34.6767 45.8289 33.2272 45.8289 31.4386C45.8289 29.6499 47.2779 28.2004 49.0647 28.2004C50.8515 28.2004 52.3006 29.6499 52.3006 31.4386Z" fill="#fff" stroke="#2C3338"/>
<path d="M63.9212 31.4386C63.9212 33.2272 62.4721 34.6767 60.6853 34.6767C58.8985 34.6767 57.4495 33.2272 57.4495 31.4386C57.4495 29.6499 58.8985 28.2004 60.6853 28.2004C62.4721 28.2004 63.9212 29.6499 63.9212 31.4386Z" fill="#fff" stroke="#2C3338"/>
<path d="M43.1182 125.176H11.0337" stroke="#2C3338"/>
<path d="M24.8262 46.7086H166.689V124.782H24.8262V46.7086Z" fill="#fff"/>
<path d="M167.084 62.4811C180.482 73.5217 201.998 98.0477 180.876 107.827C154.474 120.05 136.347 79.042 110.732 79.4363" stroke="#2C3338"/>
<path d="M24.4327 69.5783C14.1871 75.2301 -6.36562 92.7999 7.09392 107.038C20.886 121.627 42.1654 98.7571 76.843 88.8994" stroke="#2C3338"/>
<path d="M76.6699 88.6585C74.9042 82.9359 80.5108 79.9826 83.5348 79.2212L88.5763 90.2607C85.4168 91.6708 78.4355 94.3811 76.6699 88.6585Z" stroke="#2C3338"/>
<path d="M111.013 79.1386C111.13 85.1266 104.926 86.4154 101.81 86.3113L100.012 74.308C103.437 73.826 110.895 73.1507 111.013 79.1386Z" stroke="#2C3338"/>
<path d="M94.5747 78.2531L100.849 77.4643" stroke="#2C3338"/>
<line y1="-0.5" x2="6.15811" y2="-0.5" transform="matrix(-0.768026 -0.640419 0.63995 -0.768416 78.8135 72.7334)" stroke="#2C3338"/>
<line y1="-0.5" x2="7.27195" y2="-0.5" transform="matrix(-0.216802 -0.976215 0.976159 -0.217059 89.0593 67.2131)" stroke="#2C3338"/>
<line y1="-0.5" x2="3.25212" y2="-0.5" transform="matrix(-0.242394 -0.970178 0.970107 -0.242677 86.6953 57.7496)" stroke="#2C3338"/>
<path d="M98.6904 67.1173L100.649 58.5378" stroke="#2C3338"/>
<line y1="-0.5" x2="7.76753" y2="-0.5" transform="matrix(-0.405928 0.913905 -0.913718 -0.406349 85.9062 100.335)" stroke="#2C3338"/>
<line y1="-0.5" x2="5.74222" y2="-0.5" transform="matrix(0.274564 0.961569 -0.961479 0.274879 97.7288 98.7577)" stroke="#2C3338"/>
<line y1="-0.5" x2="2.49426" y2="-0.5" transform="matrix(0.316051 0.948742 -0.948624 0.316404 100.093 106.644)" stroke="#2C3338"/>
<line y1="-0.5" x2="8.98814" y2="-0.5" transform="matrix(0.789168 0.614178 -0.613703 0.789537 107.186 93.2372)" stroke="#2C3338"/>
<path d="M95.7583 84.1677L101.216 83.379" stroke="#2C3338"/>
</svg>

<svg viewBox="0 0 194 126" fill="none" xmlns="http://www.w3.org/2000/svg"><path d="M7.64 125.176H0M150.139 124.782h26.278M180.088 124.782h7.029M190.333 124.782H194" stroke="#2C3338"/><path fill="#2c3338" d="M84.571 105.855h30.557v13.453H84.571z"/><path d="M24.538 24.375a9.5 9.5 0 019.5-9.5h123.439a9.5 9.5 0 019.5 9.5V125.07H24.537V24.375z" fill="#FACFD2" stroke="#2C3338"/><circle cx="166.019" cy="20.032" r="19.032" fill="#fff" stroke="#fff" stroke-width="2"/><circle cx="166.019" cy="20.032" r="17.032" fill="#fff" stroke="#D63638" stroke-width="2"/><path stroke="#D63638" stroke-width="2" stroke-linecap="round" d="M166.018 11.014v13.027M166.018 28.045v1.005"/><path d="M24.038 45.92h142.651" stroke="#2C3338"/><path d="M40.682 31.439a3.237 3.237 0 11-3.236-3.238 3.237 3.237 0 013.236 3.238zM52.3 31.439a3.237 3.237 0 11-3.235-3.239A3.237 3.237 0 0152.3 31.44zM63.921 31.439a3.237 3.237 0 11-3.236-3.239 3.237 3.237 0 013.236 3.239z" fill="#fff" stroke="#2C3338"/><path d="M43.118 125.176H11.034" stroke="#2C3338"/><path d="M24.826 46.709H166.69v78.073H24.826V46.709z" fill="#fff"/><path d="M167.084 62.481c13.398 11.04 34.914 35.567 13.792 45.346-26.402 12.223-44.529-28.785-70.144-28.39M24.433 69.578C14.187 75.23-6.366 92.8 7.093 107.038c13.793 14.589 35.072-8.28 69.75-18.139" stroke="#2C3338"/><path d="M76.67 88.659c-1.766-5.723 3.84-8.676 6.865-9.438l5.041 11.04c-3.16 1.41-10.14 4.12-11.906-1.602zM111.013 79.139c.117 5.988-6.087 7.276-9.203 7.172l-1.798-12.003c3.425-.482 10.883-1.157 11.001 4.83zM94.575 78.253l6.274-.789" stroke="#2C3338"/><path transform="rotate(-140.177 52.58 22.093) skewX(.035)" stroke="#2C3338" d="M0-.5h6.158"/><path transform="rotate(-102.521 71.492 -2.119) skewX(.015)" stroke="#2C3338" d="M0-.5h7.272"/><path transform="rotate(-104.028 65.896 -4.975) skewX(.017)" stroke="#2C3338" d="M0-.5h3.252"/><path d="M98.69 67.117l1.959-8.58" stroke="#2C3338"/><path transform="rotate(113.949 10.342 78.089) skewX(-.026)" stroke="#2C3338" d="M0-.5h7.768"/><path transform="rotate(74.064 -16.588 114.149) skewX(.019)" stroke="#2C3338" d="M0-.5h5.742"/><path transform="rotate(71.576 -23.92 122.744) skewX(.021)" stroke="#2C3338" d="M0-.5h2.494"/><path transform="rotate(37.892 -82.212 202.74) skewX(.034)" stroke="#2C3338" d="M0-.5h8.988"/><path d="M95.758 84.168l5.458-.789" stroke="#2C3338"/></svg>
